X: 4802
T: Boys Of The Lough, The
R: reel
M: 4/4
K: Dmajor
dB|:AF ~F3 AF AB|d2 fd efdB|AF ~F3 dBAF|FEED EFGB|
AF ~F3 AF AB|d2 fd efdB|AF ~F3 dBAF|1 GFEG FDdB:|2 GFEG FD df||
a2af gfec|dBBA BcdB|AF ~F3 dBAF|(3GFE ED EGFE|
D2af gfec|dBBA BcdB|AF ~F3 dBAF|GFEG FD df|
a2af gfec|dBBA BcdB|AF ~F3 AB de|fdgf e2 fg|
af (3gfe fdec|dBBA BcdB|AF ~F3 dBAF|GFEG FD dB||

